images/client-logo-3.svg

<svg width="41" height="43" viewBox="0 0 41 43" fill="none" xmlns="http://www.w3.org/2000/svg">
<path d="M6.34547 41.7946C6.36049 41.795 6.37527 41.7982 6.38896 41.8041C6.40265 41.81 6.41497 41.8184 6.42521 41.8289L6.63098 42.0446C6.47126 42.2191 6.27385 42.3588 6.05225 42.4539C5.79275 42.5577 5.51308 42.6078 5.23174 42.6009C4.96736 42.6061 4.7047 42.5594 4.4601 42.4637C4.23945 42.3758 4.04121 42.2437 3.87879 42.0764C3.71303 41.9029 3.58535 41.6996 3.50326 41.4784C3.41336 41.2318 3.36898 40.9723 3.37208 40.7113C3.36843 40.4486 3.41641 40.1875 3.51355 39.9417C3.6034 39.7191 3.73894 39.5158 3.91223 39.3436C4.08787 39.1749 4.29797 39.0423 4.52954 38.9539C4.78288 38.8604 5.05265 38.8138 5.32433 38.8167C5.5767 38.8108 5.82773 38.8534 6.06254 38.9417C6.26625 39.0259 6.4533 39.1428 6.61555 39.2873L6.44321 39.5177C6.43131 39.5339 6.41651 39.548 6.39949 39.5593C6.37915 39.5726 6.35458 39.5787 6.33004 39.5765C6.30334 39.5747 6.27761 39.5663 6.25545 39.552L6.16285 39.4907L6.03424 39.4123C5.97873 39.3832 5.92114 39.3578 5.86191 39.3363C5.78562 39.3103 5.70738 39.2898 5.62785 39.275C5.52691 39.2573 5.42439 39.2491 5.32176 39.2505C5.12612 39.2482 4.93197 39.2832 4.75075 39.3534C4.58174 39.4185 4.42918 39.5171 4.3032 39.6427C4.17494 39.7762 4.0761 39.9329 4.01254 40.1034C3.9401 40.2985 3.9044 40.5043 3.90709 40.7113C3.904 40.9214 3.93969 41.1305 4.01254 41.3289C4.07531 41.498 4.17231 41.6537 4.29805 41.7872C4.41586 41.9117 4.56188 42.0089 4.72503 42.0715C4.89292 42.1379 5.07314 42.1712 5.25489 42.1696C5.35987 42.1711 5.46481 42.1646 5.56869 42.15C5.7383 42.1302 5.901 42.0741 6.04453 41.9858C6.11653 41.9405 6.18449 41.8897 6.24773 41.8338C6.27417 41.8098 6.30895 41.7958 6.34547 41.7946Z" fill="#AFB1B8"/>
<path d="M12.2871 40.7108C12.2903 40.9709 12.2432 41.2292 12.1482 41.473C12.0644 41.6941 11.9323 41.8958 11.7608 42.0648C11.5892 42.2338 11.382 42.3662 11.1528 42.4533C10.6492 42.6363 10.0925 42.6363 9.58896 42.4533C9.36125 42.3648 9.15539 42.2321 8.98452 42.0636C8.81305 41.8916 8.68004 41.6882 8.59356 41.4657C8.40827 40.972 8.40827 40.4325 8.59356 39.9388C8.6813 39.7162 8.81414 39.5122 8.98452 39.3384C9.15685 39.1752 9.3626 39.0476 9.58896 38.9635C10.0919 38.7772 10.6499 38.7772 11.1528 38.9635C11.3813 39.0519 11.588 39.1846 11.7598 39.3531C11.9292 39.5235 12.0612 39.7243 12.1482 39.9437C12.2435 40.1892 12.2906 40.4492 12.2871 40.7108ZM11.747 40.7108C11.751 40.5028 11.718 40.2956 11.6492 40.0981C11.5916 39.929 11.4979 39.7729 11.374 39.6399C11.2534 39.5139 11.1049 39.4152 10.9393 39.3507C10.5734 39.2167 10.1684 39.2167 9.80245 39.3507C9.63684 39.4152 9.48836 39.5139 9.36776 39.6399C9.24215 39.7722 9.14747 39.9284 9.08997 40.0981C8.9591 40.4971 8.9591 40.9246 9.08997 41.3235C9.14803 41.4931 9.24265 41.6492 9.36776 41.7818C9.48851 41.907 9.637 42.0049 9.80245 42.0685C10.169 42.1991 10.5728 42.1991 10.9393 42.0685C11.1048 42.0049 11.2533 41.907 11.374 41.7818C11.4974 41.6484 11.591 41.4925 11.6492 41.3235C11.7183 41.1261 11.7513 40.9189 11.747 40.7108Z" fill="#AFB1B8"/>
<path d="M16.3408 41.3532L16.3948 41.4904C16.4154 41.4414 16.4334 41.3973 16.454 41.3532C16.4736 41.3071 16.4959 41.2621 16.5209 41.2184L17.8352 38.942C17.861 38.9028 17.8841 38.8783 17.9098 38.8709C17.9448 38.8608 17.9814 38.8566 18.0179 38.8587H18.4062V42.5613H17.9458V39.8388C17.9458 39.8045 17.9458 39.7653 17.9458 39.7237C17.9434 39.6812 17.9434 39.6387 17.9458 39.5962L16.6238 41.9046C16.607 41.9391 16.5801 41.9684 16.5464 41.9888C16.5126 42.0092 16.4734 42.02 16.4334 42.0197H16.3588C16.3188 42.0203 16.2794 42.0097 16.2456 41.9892C16.2118 41.9687 16.185 41.9393 16.1685 41.9046L14.8078 39.5815C14.8078 39.6256 14.8078 39.6698 14.8078 39.7139C14.8078 39.758 14.8078 39.7972 14.8078 39.8315V42.5539H14.3629V38.8587H14.7512C14.7877 38.8566 14.8243 38.8608 14.8593 38.8709C14.8912 38.886 14.9166 38.9111 14.9313 38.942L16.274 41.2209C16.3003 41.263 16.3227 41.3073 16.3408 41.3532Z" fill="#AFB1B8"/>
<path d="M21.2871 41.1692V42.5562H20.7726V38.8585H21.9198C22.1364 38.8546 22.3523 38.8818 22.5603 38.9394C22.7268 38.9843 22.8812 39.0629 23.013 39.1697C23.1272 39.2699 23.2153 39.394 23.2702 39.5324C23.3309 39.6832 23.3606 39.8438 23.3576 40.0053C23.3599 40.1675 23.3275 40.3284 23.2625 40.4782C23.2006 40.6201 23.1056 40.7466 22.9847 40.8482C22.8527 40.9595 22.6976 41.043 22.5294 41.0933C22.3292 41.1542 22.1197 41.1832 21.9095 41.179L21.2871 41.1692ZM21.2871 40.7723H21.9095C22.0447 40.7739 22.1793 40.7549 22.3082 40.7159C22.4145 40.6818 22.5125 40.6277 22.5963 40.5566C22.6736 40.4888 22.7334 40.405 22.7712 40.3116C22.8133 40.2128 22.8343 40.107 22.8329 40.0004C22.8389 39.8976 22.8213 39.7948 22.7813 39.6992C22.7413 39.6035 22.68 39.5174 22.6014 39.4466C22.4049 39.3004 22.1581 39.2296 21.9095 39.2481H21.2871V40.7723Z" fill="#AFB1B8"/>
<path d="M28.201 42.5612H27.7946C27.7538 42.5626 27.7138 42.5505 27.6814 42.5268C27.6522 42.5038 27.6293 42.4744 27.6145 42.4411L27.2647 41.5466H25.508L25.1453 42.4411C25.132 42.4738 25.1098 42.5025 25.081 42.5244C25.0483 42.5495 25.0072 42.5625 24.9652 42.5612H24.5588L26.1021 38.8582H26.6371L28.201 42.5612ZM25.6546 41.1863H27.1053L26.4931 39.6791C26.4463 39.5658 26.4076 39.4495 26.3773 39.3311L26.3182 39.5247C26.3002 39.5836 26.2796 39.6375 26.2616 39.6816L25.6546 41.1863Z" fill="#AFB1B8"/>
<path d="M30.4233 38.8754C30.4541 38.8915 30.4805 38.9141 30.5005 38.9416L32.7511 41.7329C32.7511 41.6887 32.7511 41.6446 32.7511 41.603C32.7511 41.5613 32.7511 41.5197 32.7511 41.4804V38.8582H33.2115V42.5612H32.9543C32.9178 42.5622 32.8816 42.5547 32.8489 42.5391C32.8171 42.5215 32.7892 42.4982 32.7666 42.4705L30.5185 39.6817C30.521 39.7241 30.521 39.7666 30.5185 39.8091C30.5185 39.8508 30.5185 39.8875 30.5185 39.9218V42.5612H30.0581V38.8582H30.3308C30.3626 38.8574 30.3942 38.8632 30.4233 38.8754Z" fill="#AFB1B8"/>
<path d="M37.0029 41.0884V42.5588H36.4884V41.0884L35.066 38.8584H35.5265C35.5661 38.8561 35.6053 38.8674 35.6371 38.8902C35.6651 38.914 35.6886 38.9422 35.7065 38.9735L36.5965 40.4121C36.6325 40.4733 36.6634 40.5297 36.6891 40.5836C36.7148 40.6375 36.7354 40.689 36.7534 40.7405L36.8203 40.5812C36.8452 40.5229 36.8744 40.4664 36.9077 40.4121L37.7848 38.9637C37.8033 38.9348 37.8258 38.9084 37.8517 38.8853C37.8822 38.8599 37.9218 38.8467 37.9623 38.8486H38.4279L37.0029 41.0884Z" fill="#AFB1B8"/>
<path d="M16.0862 32.6443C16.31 32.6712 16.5363 32.6933 16.7652 32.7129C20.2358 31.2337 23.1718 28.8127 25.2062 25.7526C27.2406 22.6924 28.2832 19.1289 28.2036 15.5073L24.3788 11.8633C25.1565 15.7191 24.7927 19.705 23.3282 23.3751C21.8636 27.0452 19.3561 30.2546 16.0862 32.6443Z" fill="#AFB1B8"/>
<path d="M14.7204 32.4748L14.8233 32.4944C18.3175 30.1132 20.9816 26.788 22.4709 22.9488C23.9603 19.1097 24.2065 14.9331 23.1776 10.9592L17.7298 5.76904C19.9333 10.0353 20.8202 14.8098 20.2875 19.5374C19.7547 24.265 17.8242 28.7514 14.7204 32.4748Z" fill="#AFB1B8"/>
<path d="M33.1961 19.7861C32.2706 23.7654 30.0227 27.3541 26.7863 30.0196C25.8411 30.8023 24.8216 31.4996 23.7409 32.1025C26.3763 31.3646 28.7985 30.0598 30.8209 28.289C32.8433 26.5181 34.4119 24.3284 35.4056 21.8887L33.1961 19.7861Z" fill="#AFB1B8"/>
<path d="M32.3293 19.2002L29.1835 16.2031C29.1234 19.6201 28.1038 22.9594 26.2307 25.8739C24.3576 28.7885 21.6994 31.1718 18.5323 32.7764H18.5477C19.2535 32.7761 19.9586 32.736 20.6595 32.6563C23.6193 31.5053 26.2339 29.6742 28.2702 27.3262C30.3065 24.9782 31.701 22.1865 32.3293 19.2002Z" fill="#AFB1B8"/>
<path d="M15.1757 3.5803L11.4229 0C8.06808 1.23513 5.18278 3.40643 3.14464 6.22973C1.1065 9.05304 0.0104686 12.3968 0 15.8234H0C0.0125737 19.6097 1.3502 23.2838 3.80116 26.2643C6.25213 29.2448 9.67642 31.3614 13.5321 32.2791C16.974 28.2838 18.9892 23.347 19.2847 18.186C19.5803 13.025 18.1409 7.90862 15.1757 3.5803Z" fill="#AFB1B8"/>
<path d="M41 18.649C40.9864 14.1568 39.1073 9.85223 35.7732 6.67574C32.4391 3.49924 27.921 1.70898 23.2059 1.69605C21.0271 1.6939 18.8668 2.07696 16.8347 2.82576L39.8117 24.7166C40.5984 22.7815 41.0014 20.7241 41 18.649Z" fill="#AFB1B8"/>
</svg>

<svg width="41" height="43" fill="none" xmlns="http://www.w3.org/2000/svg"><path d="M6.345 41.795a.118.118 0 01.08.034l.206.216c-.16.174-.357.314-.579.409-.26.104-.539.154-.82.147a2.01 2.01 0 01-.772-.137 1.672 1.672 0 01-.957-.986 2.163 2.163 0 01-.13-.767 2.017 2.017 0 01.14-.77c.09-.222.226-.425.4-.597.175-.17.385-.302.617-.39.253-.094.523-.14.794-.137.253-.006.504.036.739.125.203.084.39.2.553.345l-.173.23a.173.173 0 01-.044.042.11.11 0 01-.069.018.157.157 0 01-.075-.025l-.092-.061-.129-.079a1.4 1.4 0 00-.406-.137 1.643 1.643 0 00-.306-.024 1.532 1.532 0 00-.571.102 1.29 1.29 0 00-.448.29c-.128.133-.227.29-.29.46-.073.195-.109.401-.106.608-.003.21.033.42.106.618.062.169.16.325.285.458.118.125.264.222.427.285.168.066.348.1.53.098.105.001.21-.005.314-.02.17-.02.332-.076.476-.164.072-.045.14-.096.203-.152a.153.153 0 01.097-.04zM12.287 40.71c.003.26-.044.52-.139.763a1.655 1.655 0 01-.387.592 1.754 1.754 0 01-.608.388 2.296 2.296 0 01-1.564 0 1.777 1.777 0 01-.604-.39 1.74 1.74 0 01-.391-.597 2.167 2.167 0 010-1.527c.087-.223.22-.427.39-.6a1.78 1.78 0 01.605-.375 2.258 2.258 0 011.564 0c.228.088.435.22.607.39.17.17.301.37.388.59.095.245.143.505.14.767zm-.54 0a1.759 1.759 0 00-.098-.612 1.208 1.208 0 00-.71-.747 1.658 1.658 0 00-1.137 0 1.208 1.208 0 00-.712.747c-.13.4-.13.827 0 1.226a1.203 1.203 0 00.712.745c.367.13.77.13 1.137 0 .166-.064.314-.162.435-.287.123-.134.217-.29.275-.458.07-.198.102-.405.098-.613zM16.34 41.353l.055.137c.02-.049.038-.093.059-.137a1.28 1.28 0 01.067-.135l1.314-2.276c.026-.04.05-.064.075-.071a.323.323 0 01.108-.012h.388v3.702h-.46V39.84v-.115a1.13 1.13 0 010-.128l-1.322 2.309a.202.202 0 01-.078.084.216.216 0 01-.113.03h-.074c-.04.001-.08-.01-.113-.03a.2.2 0 01-.077-.084l-1.361-2.324v2.973h-.445v-3.695h.388a.323.323 0 01.108.012.15.15 0 01.072.071l1.343 2.279a.812.812 0 01.067.132zM21.287 41.17v1.386h-.514V38.86h1.147a2.25 2.25 0 01.64.08c.167.045.321.124.453.23.114.1.202.225.257.363.06.151.09.312.088.473.002.162-.03.323-.096.473a1.013 1.013 0 01-.277.37 1.27 1.27 0 01-.456.245c-.2.061-.41.09-.62.086l-.622-.01zm0-.398h.623c.135.002.27-.017.398-.056a.843.843 0 00.288-.16.651.651 0 00.175-.244.768.768 0 00.062-.312.677.677 0 00-.052-.3.707.707 0 00-.18-.253 1.033 1.033 0 00-.691-.199h-.623v1.524zM28.201 42.561h-.406a.181.181 0 01-.114-.034.226.226 0 01-.067-.086l-.35-.894h-1.756l-.363.894a.2.2 0 01-.064.083.181.181 0 01-.116.037h-.406l1.543-3.703h.535l1.564 3.703zm-2.546-1.375h1.45l-.612-1.507a2.6 2.6 0 01-.116-.348l-.059.194a1.84 1.84 0 01-.056.157l-.607 1.504zM30.423 38.875c.031.017.058.04.078.067l2.25 2.79v-.129-2.745h.46v3.703h-.257a.23.23 0 01-.105-.022.283.283 0 01-.082-.069l-2.249-2.788c.003.042.003.085 0 .127v2.753h-.46v-3.704h.273c.032 0 .063.005.092.017zM37.003 41.088v1.47h-.515v-1.47l-1.422-2.23h.46a.173.173 0 01.111.032.314.314 0 01.07.084l.89 1.438c.035.061.066.118.092.172.026.053.046.105.064.156l.067-.159a1.3 1.3 0 01.088-.169l.877-1.448a.379.379 0 01.067-.079.161.161 0 01.11-.036h.466l-1.425 2.24zM16.086 32.644c.224.027.45.05.68.069 3.47-1.48 6.406-3.9 8.44-6.96 2.035-3.06 3.077-6.624 2.998-10.246l-3.825-3.644a20.22 20.22 0 01-1.05 11.512c-1.465 3.67-3.973 6.88-7.243 9.27z" fill="#AFB1B8"/><path d="M14.72 32.475l.103.02c3.494-2.382 6.159-5.707 7.648-9.546a19.54 19.54 0 00.707-11.99L17.73 5.77a24.082 24.082 0 012.558 13.768c-.533 4.728-2.464 9.214-5.568 12.938zM33.196 19.786c-.925 3.98-3.173 7.568-6.41 10.234a20.218 20.218 0 01-3.045 2.082 18.187 18.187 0 007.08-3.813 17.085 17.085 0 004.585-6.4l-2.21-2.103z" fill="#AFB1B8"/><path d="M32.33 19.2l-3.146-2.997a18.474 18.474 0 01-2.953 9.67c-1.873 2.915-4.532 5.299-7.699 6.903h.016c.706 0 1.41-.04 2.112-.12a19.338 19.338 0 007.61-5.33 18.092 18.092 0 004.06-8.126zM15.176 3.58L11.423 0c-3.355 1.235-6.24 3.406-8.278 6.23C1.107 9.053.01 12.397 0 15.823c.013 3.787 1.35 7.46 3.801 10.441 2.451 2.98 5.875 5.097 9.731 6.015 3.442-3.995 5.457-8.932 5.753-14.093.295-5.161-1.144-10.277-4.11-14.606zM41 18.649c-.014-4.492-1.893-8.797-5.227-11.973-3.334-3.177-7.852-4.967-12.567-4.98-2.179-.002-4.34.381-6.371 1.13l22.977 21.89A16.072 16.072 0 0041 18.65z" fill="#AFB1B8"/></svg>
